X:136
T:Ramble, The
M:6/8
L:1/8
B:Thompson's Compleat Collection of 200 Favourite Country Dances, vol. 3 (London, 1773)
Z:Transcribed and edited by Flynn Titford-Mock, 2007
Z:abc's:AK/Fiddler's Companion
K:G
G2G d2d | e2f g3 | gag f2f | e2e d3::def g2d | d2c B2A |
BcB AGA | BcB A2G | def g2d | d2c B3 | c2c B2B | AGA G3 :|

